icons/line/shopping-bag.svg

<svg width="24" height="24" viewBox="0 0 24 24" fill="none" xmlns="http://www.w3.org/2000/svg">
<path d="M8 8H6C4.89543 8 4 8.89543 4 10V19C4 20.1046 4.89543 21 6 21H18C19.1046 21 20 20.1046 20 19V10C20 8.89543 19.1046 8 18 8H16M8 8H16M8 8V11M8 8V7C8 4.79086 9.79086 3 12 3V3C14.2091 3 16 4.79086 16 7V8M16 8V11" stroke="currentColor" stroke-width="2" stroke-linecap="round" stroke-linejoin="round"/>
</svg>

<svg width="24" height="24" fill="none" xmlns="http://www.w3.org/2000/svg"><path d="M8 8H6a2 2 0 00-2 2v9a2 2 0 002 2h12a2 2 0 002-2v-9a2 2 0 00-2-2h-2M8 8h8M8 8v3m0-3V7a4 4 0 014-4v0a4 4 0 014 4v1m0 0v3" stroke="currentColor" stroke-width="2" stroke-linecap="round" stroke-linejoin="round"/></svg>
